X: 14
T:Jota da Guía
M:3/4
L:1/8
Q:270
C:X.R.F.
R:Jota
B:Os Segredos da Gaita. FOXO
K:C
GA GE |: CE GA GE | C2 GA GE |
CE Gc BA | B2 FG FE | GF DE FA | GF DE FA |
GF GA BA | G2 GA GE | CE GA GE | C2 GA GE |
CE Gc BA | B2 AB cB | AG cB AG | BA GA BA|
BA GF ED |C6- |1 C2 GA GE :|2 C2 c3A | B2G2A2 | F2 A4|
G4 E2- | E2 c2G2 | c2G2 c2 | G2 E4 | F4 A2- | A2 c2A2 | B2G2 A2|
F2 A4 | G4 E2- | E2 G2 A2 | G2 E2 F2 | G2 c2A2 | G4 B2- | B2 c2A2|
G4 B2- | B2 F2 A2 | G4 E2- | E2 G2A2 | G2E2 F2 | G2 c2 A2 |
G4 B2- | B2 c2 A2 | G4 B2- | B2 A2 B2 | c6- | c2 EF GA |: G2AB c2- |
c2 cB AG | FG FE D2- | D2 DE FG | F2 GA B2- | B2 BA GF |
GA GF E2- | E2 EF GA | G2 AB c2- | c2 cB AG | FE FG A2- |
A2 Ac BA | G2 EF G2 

